X:1
T:Oh, Are You Sleeping, Maggie
M:4/4
L:1/8
K:C
 z A,2 B,| C D- D2 E2 D2| C2 D2 E2 A,2|C-B, B,2 A,2 CC| B, A,- A,2 z2 A,B,|\
 C2 D2 ED C2| z2 D2 E2 A,2|C-B, B,2A,-G, C2| CB, A,2- A,4| z4 z2 EE|\
 E4A,-B, C- D-| DE-E DE-D C2| D4G,-A, B,- C-| CD G3F-E D-| C2 A,B, C3 E|\
 E2 DC-C D- D2| E2 A,2 C B,- B,2|A,-G, E,2 C2 B, A,-| A,4|
